X: 31
T:I Wish You Would Marry Me Now (#231)
M:4/4
L:1/8
S:Preston's Collection of Scots Reels and Country Dances 1768
R:Reel
K:C
EAAB c2 ce|dcBA GABG|AE E/2E/2E c2 ce|dBgB A/2A/2A A2:|
agea geae|fedg BGdB|agea geae|gdgB A/2A/2A A2|
agea geae|gedg BGdB|cAdB ecae|gegB A/2A/2A A2||

